templates/main/source/images/sposob-oplaty.svg

<?xml version="1.0" encoding="utf-8"?>
<svg width="47px" height="50px" viewBox="0 0 47 50" version="1.1" xmlns:xlink="http://www.w3.org/1999/xlink" xmlns="http://www.w3.org/2000/svg">
  <desc>Created with Lunacy</desc>
  <g id="sposob-oplaty">
    <path d="M41.4027 23.4402L19.5327 1.31018C18.7109 0.472171 17.5865 7.18555e-17 16.4127 0C15.239 -7.18555e-17 14.1145 0.472171 13.2927 1.31018L1.2927 13.4302C-0.430901 15.2037 -0.430901 18.0266 1.2927 19.8002L3.2927 21.8602L7.8727 21.8602L3.6027 17.4802C3.3812 17.245 3.25935 16.9332 3.2627 16.6102C3.2614 16.2935 3.38333 15.9886 3.6027 15.7602L5.1827 14.2102L12.6827 21.8602L19.8927 21.8602L8.7927 10.5502L15.5827 3.65018C15.8012 3.42559 16.0994 3.29623 16.4127 3.29018C16.724 3.2865 17.0235 3.40918 17.2427 3.63018L39.1127 25.7602C39.3324 25.9844 39.4546 26.2863 39.4527 26.6002C39.4367 26.9181 39.3009 27.2182 39.0727 27.4402L37.8327 28.6602L37.8327 33.3002L41.3627 29.7602C43.1021 28.0189 43.1199 25.2033 41.4027 23.4402L41.4027 23.4402Z" transform="translate(4.317383 0)" id="Path" fill="#A6A6A6" stroke="none" />
    <path d="M4.52 0L35.46 0C36.6304 0.00519471 37.75 0.478606 38.5692 1.31463C39.3883 2.15065 39.8387 3.27973 39.82 4.45L39.82 16.29L0 16.29L0 4.45C0.0382405 1.98105 2.05076 -0.000296128 4.52 0ZM8.59 11.35C9.18279 11.9316 9.97957 12.2582 10.81 12.26C12.6049 12.26 14.06 10.8049 14.06 9.01C14.06 7.21507 12.6049 5.76 10.81 5.76C9.97957 5.76183 9.18279 6.08843 8.59 6.67C7.99781 6.08753 7.20064 5.76076 6.37 5.76C4.57507 5.76 3.12 7.21507 3.12 9.01C3.12 10.8049 4.57507 12.26 6.37 12.26C7.20043 12.2582 7.99721 11.9316 8.59 11.35Z" transform="translate(0 23.94043)" id="Shape" fill="#8C0014" fill-rule="evenodd" stroke="none" />
    <path d="M0 0.27C0.0380999 2.74223 2.0475 4.7294 4.52 4.74L35.46 4.74C36.634 4.72952 37.7551 4.25029 38.5739 3.40893C39.3928 2.56756 39.8414 1.43385 39.82 0.26L39.82 0L0 0L0 0.27Z" transform="translate(0 45.259766)" id="Path" fill="#8C0014" stroke="none" />
  </g>
</svg>

<svg width="47" height="50" viewBox="0 0 47 50" xmlns:xlink="http://www.w3.org/1999/xlink" xmlns="http://www.w3.org/2000/svg"><g id="sposob-oplaty" stroke="none"><path d="M41.403 23.44L19.533 1.31a4.37 4.37 0 00-6.24 0l-12 12.12a4.57 4.57 0 000 6.37l2 2.06h4.58l-4.27-4.38a1.25 1.25 0 01-.34-.87 1.22 1.22 0 01.34-.85l1.58-1.55 7.5 7.65h7.21l-11.1-11.31 6.79-6.9a1.19 1.19 0 01.83-.36c.311-.003.61.12.83.34l21.87 22.13c.22.224.342.526.34.84a1.26 1.26 0 01-.38.84l-1.24 1.22v4.64l3.53-3.54a4.5 4.5 0 00.04-6.32z" transform="translate(4.317)" id="Path" fill="#A6A6A6"/><path d="M4.52 0h30.94a4.38 4.38 0 014.36 4.45v11.84H0V4.45A4.52 4.52 0 014.52 0zm4.07 11.35a3.18 3.18 0 002.22.91 3.25 3.25 0 000-6.5 3.18 3.18 0 00-2.22.91 3.17 3.17 0 00-2.22-.91 3.25 3.25 0 100 6.5 3.18 3.18 0 002.22-.91z" transform="translate(0 23.94)" id="Shape" fill="#8C0014" fill-rule="evenodd"/><path d="M0 .27a4.54 4.54 0 004.52 4.47h30.94A4.4 4.4 0 0039.82.26V0H0v.27z" transform="translate(0 45.26)" id="Path" fill="#8C0014"/></g></svg>
